X: 62
T: Missa de Sancto Job / Agnus Dei
N: Derived from Rue1013e-Missa_De_Sancto_Job-Agnus.krn
C: Pierre de la Rue
%%abc-version 2.0
%%abcx-abcm2ps-target-version 5.9.1 (29 Sep 2008)
%%abc-creator hum2abc beta
%%abcx-conversion-date 2019/02/17 08:01:12
%%abc-edited-by Jesse Rodin
%%abc-edited-by Megan K. Eagen 2013/01/20
%%abcx-initial-encoding-date 2013/01/20/
%%humdrum-veritas 128739744
%%humdrum-veritas-data 2290931997
%%linebreak <none>
%%barnumbers 0
L: 1/4
M: 3/1
Q: 1/2=120
%%staves [1 2 3 4]
V: 1 clef=treble
V: 2 clef=treble-8
V: 3 clef=treble-8
V: 4 clef=bass
K: F
[V:1] G8B3A | 
[V:2] G8G4 | 
[V:3] z12 | 
[V:4] z12 | 
[V:1] G2F2G2B4AG | 
[V:2] B8G4 | 
[V:3] z12 | 
[V:4] z12 | 
[V:1] A2F2A2B2c2d2- | 
[V:2] F8A2B2 | 
[V:3] z12 | 
[V:4] z12 | 
[V:1] d2c3AB2A2c2- | 
[V:2] c4d4c3d | 
[V:3] z12 | 
[V:4] z12 | 
[V:1] c2BAG4z2F2 | 
[V:2] e2f4e2f4 | 
[V:3] z12 | 
[V:4] z12 | 
[V:1] A3BcBGBA2G2- | 
[V:2] z2F2A2B2cBGB | 
[V:3] z12 | 
[V:4] z12 | 
[V:1] G2F2G2E2F3G | 
[V:2] A4(3:2:5G4c2d2B3A | 
[V:3] z12 | 
[V:4] z12 | 
[V:1] E8z4 | 
[V:2] c4z2c2e2f2 | 
[V:3] z12 | 
[V:4] C,8C,4 | 
[V:1] z2G2B4c4 | 
[V:2] g8e4 | 
[V:3] G8G4 | 
[V:4] _E,8C,4 | 
[V:1] d4d2B4AG | 
[V:2] d8z4 | 
[V:3] B8G4 | 
[V:4] B,,4D,4E,4 | 
[V:1] A2c3BA2G2B2 | 
[V:2] c4f4e2d2 | 
[V:3] F4A4B4 | 
[V:4] F,8G,4 | 
[V:1] A2c4B2A4 | 
[V:2] c2e3fg4^f2 | 
[V:3] c8d4 | 
[V:4] z12 | 
[V:1] G2B2A2B3AFG | 
[V:2] g4d8 | 
[V:3] z12 | 
[V:4] G,4F,2G,3F,D,E, | 
[V:1] A2F2G2F2A2GF | 
[V:2] z2A2G2A2F3G | 
[V:3] d4c2d3cAB | 
[V:4] F,3D,_E,2F,2D,4 | 
[V:1] E2A4G3^FF2 | 
[V:2] G2c2d2e2c4 | 
[V:3] c3AB2c2A4 | 
[V:4] C,4z4z4 | 
[V:1] G4z4z4 | 
[V:2] z2e2e2g3fed | 
[V:3] G4z4z4 | 
[V:4] z2C,2C,2C,3D,E,F, | 
[V:1] z2B2B2B4AG | 
[V:2] e2d2B2B2G4 | 
[V:3] z2G2G2G3ABc | 
[V:4] G,2G,3F,E,D,E,4 | 
[V:1] F3EFEA4G2 | 
[V:2] A4z4d4 | 
[V:3] d2d3cBAB4 | 
[V:4] D,4z4z4 | 
[V:1] A12 | 
[V:2] f6edc4 | 
[V:3] A4z4z4 | 
[V:4] D,4F,8 | 
[V:1] z4z4z2G2 | 
[V:2] d4_e8 | 
[V:3] A4c8 | 
[V:4] D,4C,8 | 
[V:1] FEF2G3FE2D2 | 
[V:2] d4d2_edcBd2 | 
[V:3] A4G8 | 
[V:4] D,4B,,2C,3G,,B,,2 | 
[V:1] A4A2GFEDD2- | 
[V:2] cBc2d4z4 | 
[V:3] A4F2G3DF2 | 
[V:4] A,,4z4z4 | 
[V:1] D2C2D2F3GA2- | 
[V:2] g4f3ed2c2 | 
[V:3] E4z4z4 | 
[V:4] z4D,4F,3E, | 
[V:1] AGFEF4E2A2- | 
[V:2] d2G2FEF2G2F2 | 
[V:3] z4A4c3B | 
[V:4] D,2C,2D,4C,2F,2- | 
[V:1] AFG2C2c3BAG | 
[V:2] c4z4z2G2 | 
[V:3] A2G2A4G2c2- | 
[V:4] F,2E,2F,3E,C,2E,2 | 
[V:1] F4E2A4G2- | 
[V:2] A2F2G2ABcd_ed | 
[V:3] c2B2c3BG2B2 | 
[V:4] D,4C,2F,3E,G,2 | 
[V:1] G2^F2G8- | 
[V:2] d3cBAB4G2 | 
[V:3] A4G8- | 
[V:4] D,4G,,8- | 
[V:1] G12 ||  
[V:2] d12 ||  
[V:3] G12 ||  
[V:4] G,,12 ||  
[V:1]  [K:F] [K:clef=treble][M:2/1]A8 | 
[V:2]  [K:F] [K:clef=treble-8][M:2/1]d4c2d2- | 
[V:3]  [K:F] [K:clef=treble-8][M:2/1]z8 | 
[V:4]  [K:F] [K:clef=bass][M:2/1]z8 | 
[V:1] A4A4 | 
[V:2] d2cBA4 | 
[V:3] z8 | 
[V:4] z8 | 
[V:1] B4A2B2- | 
[V:2] G4z2d2 | 
[V:3] z8 | 
[V:4] z8 | 
[V:1] B2AGA4 | 
[V:2] d4d4 | 
[V:3] z8 | 
[V:4] z8 | 
[V:1] G3AB2c2 | 
[V:2] e4d2e2- | 
[V:3] z8 | 
[V:4] z8 | 
[V:1] G2c4=B2 | 
[V:2] e2dcd4 | 
[V:3] z8 | 
[V:4] z8 | 
[V:1] c3BG2A2 | 
[V:2] c8 | 
[V:3] z8 | 
[V:4] z8 | 
[V:1] A2GFG2A2 | 
[V:2] z4c4 | 
[V:3] z8 | 
[V:4] z8 | 
[V:1] E4z2E2 | 
[V:2] c3BG2A2- | 
[V:3] z8 | 
[V:4] z8 | 
[V:1] E4E4 | 
[V:2] A2GFG2A2 | 
[V:3] z8 | 
[V:4] z8 | 
[V:1] F4E2F2- | 
[V:2] D4z4 | 
[V:3] A8 | 
[V:4] z8 | 
[V:1] F2EDE4 | 
[V:2] z8 | 
[V:3] A4A4 | 
[V:4] z8 | 
[V:1] D4z2F2 | 
[V:2] z4d4 | 
[V:3] B4A2B2- | 
[V:4] D,8 | 
[V:1] F4F4 | 
[V:2] d4d4 | 
[V:3] B2AGA4 | 
[V:4] D,4D,4 | 
[V:1] G4F2G2- | 
[V:2] B3cd2G2- | 
[V:3] G4z4 | 
[V:4] _E,4D,2E,2- | 
[V:1] G2FEF4 | 
[V:2] G2c4=B2 | 
[V:3] z4F4 | 
[V:4] E,2D,C,D,4 | 
[V:1] E8 | 
[V:2] c8 | 
[V:3] G4A4 | 
[V:4] C,4z4 | 
[V:1] z4D4 | 
[V:2] d8 | 
[V:3] B2G2B4 | 
[V:4] z4B,,4 | 
[V:1] E4F4 | 
[V:2] z4d4 | 
[V:3] A4A4 | 
[V:4] C,4D,4 | 
[V:1] G4c4 | 
[V:2] B4G2G2- | 
[V:3] G8 | 
[V:4] _E,2C,2E,4 | 
[V:1] B2A2BAGF | 
[V:2] G2FEF4 | 
[V:3] z4B4 | 
[V:4] D,4D,4 | 
[V:1] E2C2E3F | 
[V:2] G8 | 
[V:3] c6BA | 
[V:4] C,8 | 
[V:1] G2A4G2 | 
[V:2] z4G4 | 
[V:3] B3AB4 | 
[V:4] z4E,4 | 
[V:1] A8 | 
[V:2] c2c2A3B | 
[V:3] A8 | 
[V:4] F,6E,D, | 
[V:1] z8 | 
[V:2] c2d4^c2 | 
[V:3] z8 | 
[V:4] E,3D,E,4 | 
[V:1] A8 | 
[V:2] d2f4ed | 
[V:3] A4F4 | 
[V:4] D,8 | 
[V:1] G4G4 | 
[V:2] edcBc4 | 
[V:3] E3DE4 | 
[V:4] z8 | 
[V:1] F4G4 | 
[V:2] d8 | 
[V:3] D4G4- | 
[V:4] D,4B,,4 | 
[V:1] A4c4 | 
[V:2] z8 | 
[V:3] G4^F4 | 
[V:4] A,,3G,,A,,4 | 
[V:1] B4G2G2- | 
[V:2] d4e2e2- | 
[V:3] G8- | 
[V:4] G,,4C,4- | 
[V:1] G2FED2G2- | 
[V:2] e2dcd4 | 
[V:3] G8 | 
[V:4] C,4B,,4 | 
[V:1] G2E4C2 | 
[V:2] c2g4e2- | 
[V:3] E6F2 | 
[V:4] C,8- | 
[V:1] C4z2c2 | 
[V:2] e2c2c4 | 
[V:3] G2A4G2 | 
[V:4] C,8 | 
[V:1] c3BA2GF | 
[V:2] z2c4d2 | 
[V:3] A8- | 
[V:4] A,,6B,,2 | 
[V:1] E2D2A4 | 
[V:2] e2f2ede2 | 
[V:3] A8 | 
[V:4] C,2D,4^C,2 | 
[V:1] F3GABA2- | 
[V:2] d8- | 
[V:3] D4F3G | 
[V:4] D,8- | 
[V:1] A2G4^F2 | 
[V:2] d8 | 
[V:3] A2B2A4 | 
[V:4] D,8 | 
[V:1] G4z4 | 
[V:2] B3cd_ed2- | 
[V:3] G8 | 
[V:4] G,,4B,,3C, | 
[V:1] z8 | 
[V:2] d2c4=B2 | 
[V:3] z2G2FEF2 | 
[V:4] D,2_E,2D,4 | 
[V:1] z2G3FE2- | 
[V:2] c8 | 
[V:3] E3FG2A2 | 
[V:4] C,8 | 
[V:1] E2DCD4 | 
[V:2] z8 | 
[V:3] E2A4G2 | 
[V:4] z2C,2B,,A,,B,,2 | 
[V:1] C2c3BA2- | 
[V:2] z2e2e2f2 | 
[V:3] A8- | 
[V:4] A,,3B,,C,2D,2 | 
[V:1] A2GFE2A2 | 
[V:2] e2d2e4 | 
[V:3] A8 | 
[V:4] A,,2D,4^C,2 | 
[V:1] F2B2AGA2- | 
[V:2] d3efgf2- | 
[V:3] D2d2d2d2 | 
[V:4] D,8- | 
[V:1] A2G4^F2 | 
[V:2] f2d2d3c/d/ | 
[V:3] B2AGA4 | 
[V:4] D,8 | 
[V:1] G8- | 
[V:2] _e2d2_e4 | 
[V:3] G8- | 
[V:4] G,,8- | 
[V:1] G8 |]  
[V:2] d8 |]  
[V:3] G8 |]  
[V:4] G,,8 |]  



